X: 977
T: Hastayım Yaşıyorum...
C: Udî Hrant Kenkiloğlu
O: Turkey
F: http://compmusic.upf.edu/node/140
N: hicaz--sarki--aksak--hastayim_yasiyorum--udi_hrant
N: makam= hicaz
N: form= sarki
N: usul= aksak = 9/8
M: 9/8
L: 1/16
K: C _7/8B ^f ^c 
Q: 1/4=120
%%MIDI tuningsystem comma53
A4 ^3/4c3d d4 (3dcd(3eed d2 | ^3/4c2 Bcd2 cBA4(3ABc (3edc(3BBA  | 
w:  SAZ Has ta yım  SAZ  |  ya *  *  şı yo *  rum  SAZ  | 
A4 ^3/4c2d2 .e4 e3/2d/cd e^2/4f | \
w:  *  gö rün mez  ha  | 
ga ^1/4feed dcd4(3^3/4cBA (3edcBA  | 
w:  yâ *  *  *  liy *  *  *  le   SAZ  | 
A4 ^3/4c3d d4 (3dcd(3eed d2 | ^3/4c2 Bcd2 cBA4(3ABc (3edc(3BBA  | 
w:  SAZ Has ta yım  SAZ  |  ya *  *  şı yo *  rum  SAZ  | 
A4 ^3/4c2d2 .e4 e3/2d/cd e^2/4f | \
w:  *  gö rün mez  ha  | 
ga ^1/4feed d^3/4c{e}d4(3e^3/4fg (3=fedec  | 
w:  yâ *  *  *  liy *  *  *  *  le   SAZ  | 
d/e/=f/g/e/g/f f3f f2e2 gee4 | e=f/e/ d2a3ggf ed^3/4c4dc  | 
w:  *  *  *  *  *  *  *  Bel ki  bir  *  gün   |  bir  *  *  *  gün  *  di *  *  *  ye   | 
^3/4c4 d2dB A4 B3/2A/GA Bd | d^3/4c2BcB BAA4(3e=fg (3feded  | 
w:  *  bek le *  rim  üm  |  mîd_ *  *  i *  *  *  le   SAZ  | 
d/e/=f/g/e/g/f f3f f2e2 gee4 | e=f/e/ d2a3ggf ed^3/4c4dc  | 
w:  *  *  *  *  *  *  *  Bel ki  bir  *  gün   |  bir  *  *  *  gün  *  di *  *  *  ye   | 
^3/4c4 d2dB A4 B3/2A/GA Bd | d^3/4c2BcB BAA4^3/4f4.^3/4e.g  | 
w:  *  bek le *  rim  üm  |  mîd_ *  *  i *  *  *  le   SAZ  | 
^3/4f4 d2f2 f4 (3.f.^3/4e.f(3.g.f.e .f2 | \
w:  *  Çü rü yor  SAZ  | 
^3/4f2 g2f^3/4e d2e2 f2ed ^3/4c^3/4Bcd  | 
w:  za val *  *  lı  ru *  hum   | 
^3/4c4 d2^3/4e2 ^3/4f4 g2a2 _1/4b2 | \
w:  *  aş kı nın  has  | 
=c'2 _1/4baag g^3/4ff4a4^gb  | a4 ^g2a2 g=ffe e4 d2 | 
w:  re *  *  tiy *  *  *  le   SAZ  |  *  Çü rü yor   | 
=c=B cded cBc3/2B/ A2B2 cBA^G  | A4 ^3/4c2d2 .e4 e3/2d/cd e^2/4f | 
w:  za *  val *  *  *  lı  *  ru *  *  hum   |  *  aş kı nın  has  | 
ga ^1/4feed d^3/4cd4(3efg (3fedec  | \
w:  re *  *  *  tiy *  *  *  le   SAZ  | 
d/e/=f/g/e/g/f f3f f2e2 gee4 | 
w:  *  *  *  *  *  *  *  Bel ki  bir  *  gün   | 
e=f/e/ d2a3ggf ed^3/4c4dc  | ^3/4c4 d2dB A4 B3/2A/GA Bd | 
w:  bir  *  *  *  gün  *  di *  *  *  ye   |  *  bek le *  rim  üm  | 
d^3/4c2BcB BAA4(3e=fg (3feded  | d/e/=f/g/e/g/f f3f f2e2 gee4 | 
w:  mîd_ *  *  i *  *  *  le   SAZ  |  *  *  *  *  *  *  *  Bel ki  bir  *  gün   | 
e=f/e/ d2a3ggf ed^3/4c4dc  | ^3/4c4 d2dB A4 B3/2A/GA Bd | 
w:  bir  *  *  *  gün  *  di *  *  *  ye   |  *  bek le *  rim  üm  | 
d^3/4c2BcB BAA4|
w:  mîd_ *  *  i *  *  *  le    | 


